icons/zap-24.svg

<svg xmlns="http://www.w3.org/2000/svg" width="24" height="24" viewBox="0 0 24 24"><path d="M15.716 1.329a1.341 1.341 0 012.109 1.55L15.147 9h4.161c1.623 0 2.372 2.016 1.143 3.075L8.102 22.721a1.148 1.148 0 01-1.81-1.317L8.996 15H4.674c-1.619 0-2.37-2.008-1.148-3.07l12.19-10.6zm.452 1.595L4.51 13.061a.25.25 0 00.164.439h5.45a.749.749 0 01.692 1.041l-2.559 6.066 11.215-9.668a.25.25 0 00-.164-.439H14a.75.75 0 01-.687-1.05z"/></svg>

<svg xmlns="http://www.w3.org/2000/svg" width="24" height="24" viewBox="0 0 24 24">
  <defs/>
  <path d="M15.716,1.329 C16.189,0.916 16.885,0.888 17.391,1.259 C17.897,1.631 18.077,2.304 17.825,2.879 L15.147,9 L19.308,9 C20.931,9 21.68,11.016 20.451,12.075 L8.102,22.721 C7.698,23.071 7.106,23.096 6.674,22.781 C6.242,22.467 6.083,21.896 6.292,21.404 L8.996,15 L4.674,15 C3.055,15 2.304,12.992 3.526,11.93 L15.716,1.33 Z M16.168,2.924 L4.51,13.061 C4.431,13.129 4.403,13.24 4.439,13.337 C4.476,13.435 4.57,13.5 4.674,13.5 L10.124,13.5 C10.375,13.5 10.61,13.625 10.749,13.835 C10.889,14.044 10.914,14.309 10.816,14.541 L8.257,20.607 L19.472,10.939 C19.551,10.871 19.579,10.76 19.543,10.663 C19.506,10.565 19.412,10.5 19.308,10.5 L14,10.5 C13.747,10.5 13.511,10.372 13.373,10.161 C13.234,9.949 13.212,9.682 13.313,9.45 Z"/>
</svg>
